X:1
T:Title
%%score 1 { 2 | 3 }
L:1/8
Q:1/4=110
M:4/4
K:F
V:1 treble nm="Grand Piano, Soprano"
V:2 bass nm="Choir Pad, List the Music Pealing"
V:3 bass 
V:1
 [CF]3 [CF] [CE]2 [CF]2 | [EG]4 [FA]4 | [GB]3 [Gc] [GB]2 [FA]2 | [EG]8 | [FA]3 [EG] [FA]2 [FB]2 | %5
w: By~Hubert~Platt~Main,~1882 * * *|||||
 [Fc]4 F4 | [FB]3 [FA] [DG]2 [DF]2 | [CE]8 | [CF]3 [CF] [CE]2 [CF]2 | [EG]4 [FA]4 | %10
w: |||||
 [GB]3 [Gc] [FA]2 [FB]2 | [EG]8 | [FA]3 [FB] [Fc]2 [Fd]2 | [Fc]2 E2 [DF]2 [GB]2 | [FA]4 [EG]4 | %15
w: |||||
 F8 | [Fc]3 [Fc] [Gc]2 [Gc]2 | [Ff]4 [FA]4 | [FG]3 [FG] [FB]2 [EB]2 | [FA]8 | %20
w: |||||
 [Gc]3 G [FA]2 [F=B]2 | [Ec]4 [CE]4 | [DG]3 [DF] [CE]2 [=B,D]2 | C8 | [CF]3 [CF] [CF]2 [FA]2 | %25
w: |||||
 [EG]4 F4 | [FB]3 [FA] [DG]2 [DF]2 | [CE]8 | [Ec]3 [Ec] [Fc]2 [GB]2 | [FA]2 [EG]2 F2 [FB]2 | %30
w: |||||
 [FA]4 [EG]4 | F8 |] %32
w: ||
V:2
 A,3 A, B,2 A,2 | C4[K:treble] C4 | C3 C C2 C2 | C8 | C3 C C2 G,2 | A,4 C4 | D3 C[K:bass] B,2 G,2 | %7
 G,8 | A,3 A, B,2 A,2 | C4 C4 | C3 C C2 D2 | C8 | C3[K:bass] G, A,2 B,2 | C2 B,2 A,2 D2 | C4 B,4 | %15
 A,8 | A,3 A, C2 G,2 | A,4[K:treble] D4 | D3 D C2 C2 | A,8 | C3 C C2[K:bass] G,2 | G,4 G,4 | %22
 A,3 A, G,2 F,2 | E,4 B,4 | A,3 A,[K:treble] C2 C2 | B,4 A,4 | D3 C[K:bass] B,2 G,2 | G,8 | %28
 G,3 G,[K:treble] C2 C2 | C2 B,2 A,2 D2 | C4 B,4 | A,8 |] %32
V:3
 F,3 F, G,2 F,2 | C,4 F,4 | E,3 E, F,2 F,2 | C,8 | F,3 C, F,2 F,2 | F,4 A,,4 | %6
 G,,3 A,, B,,2 =B,,2 | C,8 | F,3 F, G,2 F,2 | C,4 F,4 | E,3 E, F,2 B,,2 | C,8 | F,3 F, F,2 B,,2 | %13
 A,,2 C,2 D,2 B,,2 | C,4 C,4 | F,,8 | F,3 F, E,2 E,2 | D,4 D,4 | B,,3 B,, C,2 C,2 | F,8 | %20
 E,3 E, F,2 D,2 | C,4 C,4 | F,3 F, z2 G,,2 | C,4 E,4 | F,3 C, A,,2 F,,2 | C,4 D,4 | %26
 G,,3 A,, B,,2 =B,,2 | C,8 | C,3 C, D,2 E,2 | F,2 C,2 D,2 G,,2 | C,4 C,4 | F,,8 |] %32

